svg/UnitedNations-Flags/flag-sv.svg

<?xml version="1.0" encoding="UTF-8" standalone="no"?>
<!-- Created with Sodipodi ("http://www.sodipodi.com/") --><!--



--><svg height="256" id="svg678" inkscape:output_extension="org.inkscape.output.svg.inkscape" inkscape:version="0.46" sodipodi:docbase="D:\Kuvat\Wikipedia" sodipodi:docname="Flag_of_Eritrea.svg" sodipodi:version="0.32" version="1.0" width="256" xmlns="http://www.w3.org/2000/svg" xmlns:cc="http://creativecommons.org/ns#" xmlns:dc="http://purl.org/dc/elements/1.1/" xmlns:inkscape="http://www.inkscape.org/namespaces/inkscape" xmlns:rdf="http://www.w3.org/1999/02/22-rdf-syntax-ns#" xmlns:sodipodi="http://sodipodi.sourceforge.net/DTD/sodipodi-0.dtd" xmlns:svg="http://www.w3.org/2000/svg">
  <metadata>
    <rdf:RDF xmlns:cc="http://web.resource.org/cc/" xmlns:dc="http://purl.org/dc/elements/1.1/" xmlns:rdf="http://www.w3.org/1999/02/22-rdf-syntax-ns#">
      <cc:Work rdf:about="">
        <dc:title> eritrea</dc:title>
        <dc:description></dc:description>
        <dc:subject>
          <rdf:Bag>
            <rdf:li></rdf:li>
            <rdf:li>united_nations_member</rdf:li>
            <rdf:li>flag</rdf:li>
            <rdf:li>africa</rdf:li>
            <rdf:li>sign</rdf:li>
          </rdf:Bag>
        </dc:subject>
        <dc:publisher>
          <cc:Agent rdf:about="http://www.openclipart.org">
            <dc:title> Andrew Duhan, Source: Wikimedia Commons, Source: Wikimedia Commons, Source: Wikimedia Commons, Source: Wikimedia Commons</dc:title>
          </cc:Agent>
        </dc:publisher>
        <dc:creator>
          <cc:Agent>
            <dc:title>Andrew Duhan</dc:title>
          </cc:Agent>
        </dc:creator>
        <dc:rights>
          <cc:Agent>
            <dc:title> Andrew Duhan</dc:title>
          </cc:Agent>
        </dc:rights>
        <dc:date></dc:date>
        <dc:format>image/svg+xml</dc:format>
        <dc:type rdf:resource="http://purl.org/dc/dcmitype/StillImage"/>
        <cc:license rdf:resource="http://en.wikipedia.org/wiki/Public_domain"/>
        <dc:language>en</dc:language>
      </cc:Work>
    </rdf:RDF>
  </metadata>
  <defs id="defs680">
    <inkscape:perspective id="perspective4074" inkscape:persp3d-origin="500 : 166.66667 : 1" inkscape:vp_x="0 : 250 : 1" inkscape:vp_y="0 : 1000 : 0" inkscape:vp_z="1000 : 250 : 1" sodipodi:type="inkscape:persp3d"/>
  </defs>
  <sodipodi:namedview id="base" inkscape:current-layer="svg678" inkscape:cx="896.62565" inkscape:cy="315.5225" inkscape:window-height="968" inkscape:window-width="1278" inkscape:window-x="0" inkscape:window-y="12" inkscape:zoom="1.9024" showgrid="false"/>
  <rect height="128" id="rect686" style="font-size:12px;fill:#ea0437;fill-opacity:1;fill-rule:evenodd;stroke-width:1pt" width="256" x="0" y="64"/>
  <path d="M 58.943892,158.50538 C 56.176484,159.2695 54.589898,161.41655 54.630528,163.44223 L 68.25246,163.38754 C 68.374863,161.21081 66.584092,159.19762 63.857833,158.40485 C 77.194842,158.12931 88.781194,153.13359 90.886569,149.92813 C 88.803069,149.02389 86.394025,150.47921 84.676698,150.14429 C 88.754107,148.25976 100.9702,140.35288 98.9841,131.87615 C 97.440223,136.58434 92.763284,140.47997 90.771461,141.52589 C 95.334845,134.59668 101.56608,127.38256 96.159913,121.79617 C 96.432852,125.03393 94.102454,128.59724 93.073208,128.86497 C 95.720292,121.54355 98.246016,112.35114 92.510664,106.29128 C 93.263846,108.48156 92.959654,114.66018 91.922591,114.93781 C 91.603297,109.95928 90.753748,99.4876 85.51062,99.63657 C 87.175857,101.11899 87.904558,105.16514 87.941542,109.25193 C 86.746657,106.45223 85.388733,104.34425 82.484334,102.27689 C 80.134664,97.7708 75.95412,94.03717 71.773053,91.36247 C 72.24236,94.64242 72.630935,97.23013 77.210468,100.63197 C 74.822779,100.48352 72.435604,95.95711 69.883837,95.83158 C 67.853988,95.73366 66.261151,97.67079 62.94422,96.55612 C 63.311434,97.651 64.858957,98.13593 65.185541,98.94589 C 64.475069,99.43656 62.788477,98.86932 61.386281,98.13906 C 63.31508,100.76635 66.303862,102.31127 68.841047,101.78987 C 71.858476,101.20962 75.093635,101.51641 78.1793,103.27228 C 77.391212,103.677 74.323779,103.6744 72.355395,103.42803 C 74.144599,105.23963 75.344696,106.44025 78.455882,106.42045 C 81.234752,106.40222 82.69164,104.93804 83.405238,105.84489 C 85.148091,107.91016 86.321098,109.97438 87.779028,112.40583 C 84.558459,112.76159 85.52937,108.76335 81.942623,106.7184 C 79.927357,110.88957 84.260516,115.83423 87.210235,117.88961 C 87.249823,121.02475 87.708193,123.64788 89.037983,126.03505 C 89.93441,127.718 91.093361,129.44054 90.656346,133.23876 C 88.890578,131.95272 87.16492,127.61539 87.799864,124.17241 C 85.589791,124.77506 84.725658,128.66131 85.767409,130.61772 C 86.545597,132.1069 87.064909,134.95713 86.167442,136.23119 C 85.292892,137.41827 85.201219,137.28544 85.212677,139.83304 C 85.24393,141.35764 84.3923,143.16039 83.005207,144.41726 C 83.294815,143.34322 83.62505,141.49515 83.304189,140.33985 C 82.207749,142.1999 79.457006,144.12453 78.590792,146.12417 C 77.740201,148.1285 77.524557,151.60014 73.408082,152.40072 C 68.112343,153.45185 66.28459,154.36963 62.877025,155.76401 C 62.49887,153.17578 63.63073,147.77847 65.79497,148.08631 C 67.908157,148.46238 74.314924,145.87884 72.023073,140.48153 C 71.570432,142.18271 70.060416,143.84274 68.427994,143.91618 C 70.191677,141.62798 73.339325,139.25852 71.80639,135.42435 C 70.954237,137.05417 69.614026,139.01006 67.581571,140.11067 C 69.760389,135.93533 67.834716,134.68627 65.247526,138.12509 C 64.270364,139.45176 63.680212,142.11031 63.059328,145.48662 C 62.043103,142.74057 62.110295,139.12569 60.906033,136.19056 C 59.648118,133.01635 62.575437,132.17826 63.953155,132.43297 C 67.326341,133.33356 72.963773,133.33304 72.544988,127.76019 C 71.088102,129.64524 68.533207,130.22758 65.774134,129.54888 C 68.872819,127.2862 71.319373,123.03013 67.866488,120.80807 C 67.751375,123.16451 65.92779,125.80639 63.493217,127.02316 C 62.923382,125.03497 62.923382,122.92491 63.411963,120.6117 C 62.05248,122.04254 61.059692,125.01987 60.270044,128.40452 C 60.210662,125.05893 60.843528,122.64832 61.312835,120.8487 C 62.024351,118.21984 63.792722,119.9304 66.499712,120.12416 C 69.106693,120.27209 72.696046,118.83135 72.010051,115.29617 C 71.119877,116.69472 69.292646,117.23903 67.425828,117.09111 C 69.673405,115.72954 73.589345,113.31007 71.441777,109.58842 C 70.53962,110.99791 70.247409,112.20373 67.63626,112.63606 C 68.320169,111.06301 68.433723,108.83888 70.460449,107.95756 C 66.845053,107.23771 64.775094,109.6103 63.722926,113.32622 C 63.296328,110.74997 62.788477,109.80146 62.687424,107.91693 C 64.641748,105.74644 64.846454,101.50027 60.615386,100.55071 C 60.364321,102.74099 60.438807,103.26291 60.920095,105.04638 C 58.933998,103.8666 56.134815,103.21551 54.271124,104.88387 C 55.533724,106.24648 57.488049,107.44606 60.50027,105.96 C 59.788754,108.28779 57.938084,107.88932 55.395172,107.00175 C 56.949466,109.92125 58.911081,110.44005 61.075837,110.10356 C 62.209262,113.09182 62.259267,115.36232 58.947018,119.71423 C 59.100155,117.00985 58.907955,114.9951 56.759345,112.80847 C 54.918049,111.0052 53.421576,112.88556 56.29889,116.89474 C 54.553436,115.60922 52.577759,113.00015 51.982917,110.39161 C 51.407352,113.61426 51.925622,117.41249 53.709619,119.54183 C 52.865802,120.44346 51.906348,119.44598 50.486963,117.24007 C 51.023987,124.2995 54.035686,125.66159 58.08341,124.08803 C 58.198523,127.96281 58.198523,131.5506 58.428749,136.23119 C 56.068664,132.83612 53.076754,130.30363 51.407352,129.67076 C 50.8896,131.56988 52.846531,134.04403 53.939848,135.42539 C 52.270961,135.08005 48.645148,132.31785 48.645148,132.31785 C 48.280535,135.46394 52.348052,138.3798 54.975869,139.68407 C 51.887596,139.54968 50.524987,138.3798 48.530035,136.46141 C 48.568581,145.18972 57.987046,143.67397 59.752292,142.33116 C 59.98252,146.62838 60.310671,151.59597 60.5409,155.89319 C 57.878185,155.42857 58.087575,154.62798 55.809265,154.41703 C 49.485839,154.17065 44.469814,146.82631 42.808742,141.4238 C 42.33214,142.31293 42.710295,143.24321 42.274324,144.33549 C 41.247677,141.68371 39.936115,138.25896 38.177119,136.66508 C 38.62507,138.21104 38.672471,139.782 38.516728,142.67129 C 37.913034,140.79927 37.351532,140.22526 37.310902,138.02769 C 37.349448,136.34057 38.938637,135.09568 38.850611,132.72257 C 38.7855,130.99014 37.205166,127.23515 36.972854,124.32815 C 36.207688,127.32006 35.727442,130.47396 34.555474,132.32619 C 35.137812,129.13114 34.95113,126.92627 35.936312,124.7761 C 37.074424,122.51238 38.042212,120.49138 37.284339,118.20682 C 36.557716,119.08919 36.807736,119.89081 34.982121,122.03473 C 34.58558,119.70329 37.342676,115.97174 40.018412,114.47162 C 41.905546,113.47727 44.28438,109.92073 42.734776,107.48304 C 40.960156,108.75762 40.163215,110.47963 37.656243,113.42206 C 39.444408,106.43191 44.090614,104.60312 49.653043,104.57916 C 50.883871,104.57343 53.365322,104.12912 54.061732,102.50035 C 52.493898,103.10561 50.640102,103.18269 48.99049,102.85246 C 50.191107,101.08982 52.719437,101.319 55.075354,101.30858 C 56.923418,101.29973 59.808548,101.04919 60.974789,98.41721 C 58.72044,99.39385 55.204531,99.59699 52.990812,98.90526 C 56.511406,97.08116 62.025912,96.88479 64.854267,94.49085 C 61.630572,92.08493 53.563773,95.05131 48.468575,98.54586 C 49.892646,97.24367 52.143345,94.93359 53.385114,93.06886 C 50.598433,91.73281 43.550991,99.54021 41.12319,104.17913 C 38.817275,105.48131 37.894804,107.52263 36.999419,108.94722 C 38.228165,104.79532 38.358382,101.78258 39.383465,98.36356 C 31.478976,101.08461 34.764552,115.68943 33.045194,119.18346 C 33.247555,115.32586 33.083686,110.37025 31.495485,107.81484 C 29.06081,109.67228 28.864338,120.60441 31.150147,129.70566 C 30.324716,127.27005 28.766776,124.99643 28.266947,122.03213 C 24.663634,128.60401 30.379251,136.35724 35.158646,142.48169 C 31.560543,140.60758 28.002964,136.57653 25.666109,133.19709 C 26.311112,144.9595 38.59434,147.40344 40.501263,150.2943 C 37.913034,149.08952 32.964928,146.70547 30.86528,149.20359 C 34.283366,149.99271 37.009838,150.90477 39.206889,152.34499 C 42.394644,156.32499 48.431068,158.06576 58.943892,158.50538 z" id="path687" sodipodi:nodetypes="cccccccccccccccccscccsccsccccsccscsccsscsccccscsscccccccsccccccccccccccccccccccccccccscccccsccsccsccsccscccccccccccccccccc" style="fill:#ffc726;fill-opacity:1;fill-rule:evenodd;stroke:none;stroke-width:1pt;stroke-linecap:butt;stroke-linejoin:miter;stroke-opacity:1"/>
  <path d="M 6.5367186e-10,191.99996 L 256,191.91978 L 255.98403,127.99996 L 6.5367186e-10,191.99996 z" id="path684" style="fill:#4189dd;fill-opacity:1;fill-rule:evenodd;stroke:none;stroke-width:1pt;stroke-linecap:butt;stroke-linejoin:miter;stroke-opacity:1"/>
  <path d="M 6.5367186e-10,64.00009 L 255.9999,64.08027 L 255.98392,128.00006 L 6.5367186e-10,64.00009 z" id="path685" style="fill:#12ad2b;fill-opacity:1;fill-rule:evenodd;stroke:none;stroke-width:1pt;stroke-linecap:butt;stroke-linejoin:miter;stroke-opacity:1"/>
</svg>

<svg xmlns="http://www.w3.org/2000/svg" viewBox="0 0 256 256"><g fill-rule="evenodd"><path fill="#ea0437" stroke-width="1.25" d="m0 64h256v128h-256z"/><path d="m58.944 158.51c-2.767.764-4.354 2.911-4.313 4.937l13.622-.055c.122-2.177-1.668-4.19-4.395-4.983 13.337-.276 24.923-5.271 27.03-8.477-2.084-.904-4.493.551-6.21.216 4.077-1.885 16.294-9.791 14.307-18.268-1.544 4.708-6.221 8.604-8.213 9.65 4.563-6.929 10.795-14.14 5.388-19.73.273 3.238-2.057 6.801-3.087 7.07 2.647-7.321 5.173-16.514-.563-22.574.753 2.19.449 8.369-.588 8.647-.319-4.979-1.169-15.45-6.412-15.301 1.665 1.482 2.394 5.529 2.431 9.615-1.195-2.8-2.553-4.908-5.457-6.975-2.35-4.506-6.53-8.24-10.711-10.914.469 3.28.858 5.868 5.437 9.269-2.388-.148-4.775-4.675-7.327-4.8-2.03-.098-3.623 1.839-6.94.725.367 1.095 1.915 1.58 2.241 2.39-.71.491-2.397-.077-3.799-.807 1.929 2.627 4.918 4.172 7.455 3.651 3.02-.58 6.253-.273 9.338 1.482-.788.405-3.856.402-5.824.156 1.789 1.812 2.989 3.01 6.1 2.992 2.779-.018 4.236-1.482 4.949-.576 1.743 2.065 2.916 4.129 4.374 6.561-3.221.356-2.25-3.642-5.836-5.687-2.02 4.171 2.318 9.116 5.268 11.171.04 3.135.498 5.758 1.828 8.145.896 1.683 2.055 3.405 1.618 7.204-1.766-1.286-3.491-5.623-2.856-9.07-2.21.603-3.074 4.489-2.032 6.445.778 1.489 1.297 4.339.4 5.613-.875 1.187-.966 1.054-.955 3.602.031 1.525-.82 3.327-2.207 4.584.29-1.074.62-2.922.299-4.077-1.096 1.86-3.847 3.785-4.713 5.784-.851 2-1.066 5.476-5.183 6.277-5.296 1.051-7.123 1.969-10.531 3.363-.378-2.588.754-7.986 2.918-7.678 2.113.376 8.52-2.207 6.228-7.605-.453 1.701-1.963 3.361-3.595 3.435 1.764-2.288 4.911-4.658 3.378-8.492-.852 1.63-2.192 3.586-4.225 4.686 2.179-4.175.253-5.424-2.334-1.986-.977 1.327-1.567 3.985-2.188 7.362-1.016-2.746-.949-6.361-2.153-9.296-1.258-3.174 1.669-4.01 3.047-3.758 3.373.901 9.01.9 8.592-4.673-1.457 1.885-4.01 2.467-6.771 1.789 3.099-2.263 5.545-6.519 2.092-8.741-.115 2.356-1.939 4.998-4.373 6.215-.57-1.988-.57-4.098-.081-6.411-1.359 1.431-2.352 4.408-3.142 7.793-.059-3.346.573-5.756 1.043-7.556.712-2.629 2.48-.918 5.187-.725 2.607.148 6.196-1.293 5.51-4.828-.89 1.399-2.717 1.943-4.584 1.795 2.248-1.362 6.164-3.781 4.02-7.503-.902 1.409-1.194 2.615-3.806 3.048.684-1.573.797-3.797 2.824-4.678-3.615-.72-5.685 1.653-6.738 5.369-.427-2.576-.934-3.525-1.036-5.409 1.954-2.17 2.159-6.417-2.072-7.366-.251 2.19-.177 2.712.305 4.496-1.986-1.18-4.785-1.831-6.649-.163 1.263 1.363 3.217 2.562 6.229 1.076-.712 2.328-2.562 1.929-5.105 1.042 1.554 2.919 3.516 3.438 5.681 3.102 1.133 2.988 1.183 5.259-2.129 9.611.153-2.704-.039-4.719-2.188-6.906-1.841-1.803-3.338.077-.46 4.086-1.745-1.286-3.721-3.895-4.316-6.503-.576 3.223-.057 7.02 1.727 9.15-.844.902-1.803-.096-3.223-2.302.537 7.06 3.549 8.422 7.596 6.848.115 3.875.115 7.463.345 12.143-2.36-3.395-5.352-5.928-7.02-6.56-.518 1.899 1.439 4.373 2.532 5.755-1.669-.345-5.295-3.108-5.295-3.108-.365 3.146 3.703 6.06 6.331 7.366-3.088-.134-4.451-1.304-6.446-3.223.039 8.728 9.457 7.213 11.222 5.87.23 4.297.558 9.265.789 13.562-2.663-.465-2.453-1.265-4.732-1.476-6.323-.246-11.339-7.591-13-12.993-.477.889-.098 1.819-.534 2.912-1.027-2.652-2.338-6.077-4.097-7.67.448 1.546.495 3.117.34 6.01-.604-1.872-1.165-2.446-1.206-4.644.039-1.687 1.628-2.932 1.54-5.305-.065-1.732-1.645-5.487-1.878-8.394-.765 2.992-1.245 6.146-2.417 7.998.582-3.195.396-5.4 1.381-7.55 1.138-2.264 2.106-4.285 1.348-6.569-.727.882-.477 1.684-2.302 3.828-.397-2.331 2.361-6.06 5.04-7.563 1.887-.994 4.266-4.551 2.716-6.989-1.775 1.275-2.572 2.997-5.079 5.939 1.788-6.99 6.434-8.819 11.997-8.843 1.231-.006 3.712-.45 4.409-2.079-1.568.605-3.422.682-5.071.352 1.201-1.763 3.729-1.533 6.085-1.544 1.848-.009 4.733-.259 5.899-2.891-2.254.977-5.77 1.18-7.984.488 3.521-1.824 9.04-2.02 11.863-4.414-3.224-2.406-11.29.56-16.386 4.055 1.424-1.302 3.675-3.612 4.917-5.477-2.787-1.336-9.834 6.471-12.262 11.11-2.306 1.302-3.228 3.344-4.124 4.768 1.229-4.152 1.359-7.165 2.384-10.584-7.904 2.721-4.619 17.326-6.338 20.82.202-3.858.038-8.813-1.55-11.369-2.435 1.857-2.631 12.79-.345 21.891-.825-2.436-2.383-4.709-2.883-7.674-3.603 6.572 2.112 14.325 6.892 20.45-3.598-1.874-7.156-5.905-9.493-9.285.645 11.762 12.928 14.206 14.835 17.1-2.588-1.205-7.536-3.589-9.636-1.091 3.418.789 6.145 1.701 8.342 3.141 3.188 3.98 9.224 5.721 19.737 6.16" fill="#ffc726"/><path d="m0 192l256-.08-.016-63.92-255.98 64" fill="#4189dd"/><path d="m0 64l256 .08-.016 63.92-255.98-64" fill="#12ad2b"/></g></svg>
